X: 654
T: Da guandeng
L: 1/8
M: 2/4
K: Eb
z e d c/ d/ [I:setbarnb 1]| 
c GB2 | 
B> g f g | 
f> d c e | 
z f d c/ d/ | 
c GB2 | 
c> e B c | 
B GB2 | 
e B/ c/e2 | 
e c g d/ c/ | 
B cG2 | 
e c g d/ c/ | 
B> cG2 | 
B G F/ G/ B- | 
B GB2 | 
g f/ f/ g e | 
g e d c/ d/ | 
c/ B/ G B c | 
d> cB2 |]

@@@ Tune index: 9528
